X:413
T: Yi xia tian lai ba kou kai
N: C1448
O: China, Hubei, Baokang
S: I, 437]
R: Shange, Tiange, Haocao luogu]
M: 2/4
L: 1/16
K: G
A8
G2E2E4 | A2BAG2E2 | AGE2G4 | d3BA4- | A6GE | z8
B8 | A2G2G4 | E2G2A4 | A3GGAE2 | D8

